resources/svg/solid/ellipsis.svg

<svg fill="currentColor" xmlns="http://www.w3.org/2000/svg" viewBox="0 0 448 512"><!--! Font Awesome Free 6.2.0 by @fontawesome - https://fontawesome.com License - https://fontawesome.com/license/free (Icons: CC BY 4.0, Fonts: SIL OFL 1.1, Code: MIT License) Copyright 2022 Fonticons, Inc. --><path d="M120 256c0 30.9-25.1 56-56 56s-56-25.1-56-56s25.1-56 56-56s56 25.1 56 56zm160 0c0 30.9-25.1 56-56 56s-56-25.1-56-56s25.1-56 56-56s56 25.1 56 56zm104 56c-30.9 0-56-25.1-56-56s25.1-56 56-56s56 25.1 56 56s-25.1 56-56 56z"/></svg>

<svg fill="currentColor" xmlns="http://www.w3.org/2000/svg" viewBox="0 0 448 512"><!--! Font Awesome Free 6.1.2 by @fontawesome - https://fontawesome.com License - https://fontawesome.com/license/free (Icons: CC BY 4.0, Fonts: SIL OFL 1.1, Code: MIT License) Copyright 2022 Fonticons, Inc. --><path d="M120 256C120 286.9 94.93 312 64 312C33.07 312 8 286.9 8 256C8 225.1 33.07 200 64 200C94.93 200 120 225.1 120 256zM280 256C280 286.9 254.9 312 224 312C193.1 312 168 286.9 168 256C168 225.1 193.1 200 224 200C254.9 200 280 225.1 280 256zM328 256C328 225.1 353.1 200 384 200C414.9 200 440 225.1 440 256C440 286.9 414.9 312 384 312C353.1 312 328 286.9 328 256z"/></svg>
